!!!!SEGMENT: pl-kk--kk-i-111--003-003_anonim--deo-gratias-per-octavas-3tium.krn
!!!cenid: 18xx:2559
!!!COM: Anonim
!!!COM-rismID: pe30004985
!!!CDT:
!!!CNT:
!!!GTL: Deo gratias
!!!OTL: Per Octavas 3tium
!!!OMV: 003
!!!PDT: 1824
!!!AGN: Sacred
!!!SMS-siglum: PL-Kk
!!!SMS-shelfmark: Kk.I.111
!!!SMS-shelfwork: 003-003 G
!!!SMS-variant:
!!!SMS-altvar:
!!!NIFC-rismSourceID: 1001156407
!!!NIFC-rismChildID: 1001157673
!!!NIFC-islandoraID: pl-kk:3371
!!!URL-pdf-islandora: https://repozytorium.nifc.pl/islandora/object/pl-kk%3A3371/datastream/PDF/view
!!!URL-scan: https://polish.musicsources.pl/pl/lokalizacje/galeria/rekopisy/5747 @EN{Scan on Polish Music Sources Website} @PL{Skany w portalu Dziedzictwo Muzyki Polskiej w otwartym dostępie}
!!!ONB-nifc: UWAGA: A, T1, T2. Podział na poszególne Deo gratias. A: skan 0002 (m.in)
!!!AIN: 1 alto 2 tenor
!!!key:
**kern	**text	**kern	**text	**kern	**text
*part3	*part3	*part2	*part2	*part1	*part1
*staff3	*staff3	*staff2	*staff2	*staff1	*staff1
*Itenor	*	*Itenor	*	*Ialto	*
*I"Tenore Vagante.	*	*I"Tenore Chorale.	*	*I"Alto.	*
*I'T 2	*	*I'T 1	*	*I'A	*
*clefC4	*	*clefC4	*	*clefC3	*
*k[]	*	*k[]	*	*k[]	*
*d:	*	*d:	*	*d:	*
*M2/1	*	*M2/1	*	*M2/1	*
*met(C|)	*	*met(C|)	*	*	*
*all\right	*	*	*	*	*
=1-	=1-	=1-	=1-	=1-	=1-
!LO:TX:t=P:problem=kreska pseudotaktowa	!	!LO:TX:t=P:problem=kreska pseudotaktowa	!	!LO:TX:t=P:problem=kreska pseudotaktowa	!
1d	De-	1A	De-	1f	De-
!LO:TX:t=P:problem=kreska pseudotaktowa	!	!LO:TX:t=P:problem=kreska pseudotaktowa	!	!LO:TX:t=P:problem=kreska pseudotaktowa	!
1c	.	1A	-o	1e	-o
=2-	=2-	=2-	=2-	=2-	=2-
!LO:TX:t=P:problem=kreska pseudotaktowa	!	!LO:TX:t=P:problem=kreska pseudotaktowa	!	!	!
1Bn	.	1G	.	2r	.
*	*	*	*	*2\right	*
!	!	!	!	!LO:TX:t=P::problem=kreska pseudotaktowa&colon;między nutą a kropką	!
.	.	.	.	2.e\	gra-
!LO:TX:t=P:problem=kreska pseudotaktowa	!	!LO:TX:t=P:problem=kreska pseudotaktowa	!	!	!
0A	-o	1A	.	.	.
.	.	.	.	4d\	.
!	!	!	!	!LO:TX:t=P::problem=kreska pseudotaktowa&colon;między nutą a kropką	!
.	.	.	.	2.c\	.
=3-	=3-	=3-	=3-	=3-	=3-
!	!	!LO:TX:t=P:problem=kreska pseudotaktowa	!	!	!
.	.	1c	.	.	.
.	.	.	.	4B/	.
!	!	!	!	!LO:TX:t=P:problem=kreska pseudotaktowa	!
.	.	.	.	2A/	.
!	!	!LO:TX:t=P:problem=kreska pseudotaktowa	!	!	!
2r	.	1Bn	.	2d\	.
*2\right	*	*	*	*	*
!LO:TX:t=P:problem=kreska pseudotaktowa	!	!	!	!	!
2B\	gra-	.	.	1e\	.
=4-	=4-	=4-	=4-	=4-	=4-
!	!	!LO:TX:t=P:problem=kreska pseudotaktowa	!	!	!
2c#X\	.	1A	.	.	.
!	!	!	!	!LO:TX:t=P:problem=kreska pseudotaktowa	!
1d	.	.	.	2f\	.
!	!	!LO:TX:t=P:problem=kreska pseudotaktowa	!	!LO:TX:t=P:problem=kreska pseudotaktowa	!
.	.	1G	.	1g	.
!LO:TX:t=P:problem=kreska pseudotaktowa	!	!	!	!	!
2c#X\	-ti-	.	.	.	.
=5-	=5-	=5-	=5-	=5-	=5-
!LO:TX:t=P:problem=kreska pseudotaktowa	!	!LO:TX:t=P:problem=kreska pseudotaktowa	!	!LO:TX:t=P:problem=kreska pseudotaktowa	!
1d	-as	0A	.	1f	.
2r	.	.	.	2e\	.
!LO:TX:t=P:problem=kreska pseudotaktowa	!	!	!	!LO:TX:t=P:problem=kreska pseudotaktowa	!
2A\	De-	.	.	2f\	.
=6-	=6-	=6-	=6-	=6-	=6-
!	!	!LO:TX:t=P:problem=kreska pseudotaktowa	!	!	!
2B\	.	1G	.	2.e\	.
!LO:TX:t=P:problem=kreska pseudotaktowa	!	!	!	!	!
2cny\	.	.	.	.	.
!	!	!	!	!LO:TX:t=P:problem=kreska pseudotaktowa	!
.	.	.	.	4e\	-ti-
!	!	!LO:TX:t=P:problem=kreska pseudotaktowa	!	!LO:TX:t=P:problem=kreska pseudotaktowa	!
2A\	-o	1F	.	0d	-as
1A\	gra-	.	.	.	.
=7-	=7-	=7-	=7-	=7-	=7-
!	!	!LO:TX:t=P:problem=kreska pseudotaktowa	!	!	!
.	.	1D	.	.	.
!LO:TX:t=P:problem=kreska pseudotaktowa	!	!	!	!	!
2G#X/	-ti-	.	.	.	.
!LO:TX:t=P:problem=kreska pseudotaktowa	!	!LO:TX:t=P:problem=kreska pseudotaktowa	!	!	!
1A	-as.	1E	.	4A/	De-
.	.	.	.	4B/	.
.	.	.	.	4c/	.
!	!	!	!	!LO:TX:t=P:problem=kreska pseudotaktowa	!
.	.	.	.	4d/	.
=8-	=8-	=8-	=8-	=8-	=8-
!	!	!LO:TX:t=P:problem=kreska pseudotaktowa	!	!	!
2r	.	1E	.	2e\	.
!LO:TX:t=P:problem=kreska pseudotaktowa	!	!	!	!LO:TX:t=P:problem=kreska pseudotaktowa	!
2A/	De-	.	.	2e\	-o
!	!	!	!	!LO:LB:g=original	!
!	!	!LO:TX:t=P:problem=kreska pseudotaktowa	!	!LO:TX:t=P:problem=fragment niewidoczny	!
4Gny/	-o	1G	gra-	1ryy	.
4A/	.	.	.	.	.
4B/	.	.	.	.	.
!LO:TX:t=P:problem=kreska pseudotaktowa	!	!	!	!	!
4G/	.	.	.	.	.
=9-	=9-	=9-	=9-	=9-	=9-
!LO:LB:g=original	!	!LO:TX:t=P:problem=kreska pseudotaktowa	!	!	!
4c\	.	1A	.	2ryy	.
4B\	.	.	.	.	.
!LO:TX:t=P:problem=kreska pseudotaktowa	!	!	!	!LO:TX:t=P::problem=kreska pseudotaktowa&colon;między nutą a kropką	!
2A\	gra-	.	.	2.f\	.
!	!	!LO:TX:t=P:problem=kreska pseudotaktowa	!	!	!
4A\	.	1D	.	.	.
8B\L	.	.	.	4e\	.
8c\J	.	.	.	.	.
1d\	.	.	.	4d\	.
!	!	!	!	!LO:TX:t=P:problem=kreska pseudotaktowa	!
.	.	.	.	4f\	.
=10-	=10-	=10-	=10-	=10-	=10-
!	!	!LO:TX:t=P:problem=kreska pseudotaktowa	!	!LO:TX:t=P:problem=kreska pseudotaktowa	!
.	.	1E	.	1e	.
!LO:TX:t=P:problem=kreska pseudotaktowa	!	!	!	!	!
2c#X\	-ti-	.	.	.	.
!	!	!LO:TX:t=P:problem=kreska pseudotaktowa	!	!	!
2d\	-as	1G	.	2d\	.
!LO:TX:t=P:problem=kreska pseudotaktowa	!	!	!	!LO:TX:t=P:problem=kreska pseudotaktowa	!
2r	.	.	.	2e\	.
=11-	=11-	=11-	=11-	=11-	=11-
!	!	!LO:TX:t=P:problem=kreska pseudotaktowa	!	!LO:TX:t=P:problem=kreska pseudotaktowa	!
2r	.	1F	.	1f	.
!LO:TX:t=P:problem=kreska pseudotaktowa	!	!	!	!	!
2A\	De-	.	.	.	.
!	!	!LO:TX:t=P:problem=kreska pseudotaktowa	!	!	!
2G/	-o	1E	.	2g\	.
!LO:TX:t=P:problem=kreska pseudotaktowa	!	!	!	!LO:TX:t=P:problem=kreska pseudotaktowa	!
2E/	.	.	.	2a\	.
=12-	=12-	=12-	=12-	=12-	=12-
!	!	!LO:TX:t=P:problem=kreska pseudotaktowa	!	!	!
2F/	gra-	1D	.	2f\	.
!	!	!	!	!LO:TX:t=P:problem=kreska pseudotaktowa	!
4D/	.	.	.	2g\	.
!LO:TX:t=P:problem=kreska pseudotaktowa	!	!	!	!	!
4d\	.	.	.	.	.
!	!	!LO:TX:t=P:problem=kreska pseudotaktowa	!	!LO:TX:t=P:problem=kreska pseudotaktowa	!
4c#X\	.	1E	.	1e	.
4d\	.	.	.	.	.
4e\	.	.	.	.	.
!LO:TX:t=P:problem=kreska pseudotaktowa	!	!	!	!	!
4c#X\	.	.	.	.	.
=13-	=13-	=13-	=13-	=13-	=13-
!	!	!LO:TX:t=P:problem=kreska pseudotaktowa	!	!	!
4d\	.	1F	.	2d\	.
4A\	.	.	.	.	.
1A	.	.	.	1d	.
.	.	2.E/	.	.	.
!LO:TX:t=P:problem=kreska pseudotaktowa	!	!	!	!LO:TX:t=P:problem=kreska pseudotaktowa	!
2A\	-ti-	.	.	2c#X\	ti-
!	!	!LO:TX:t=P:problem=kreska pseudotaktowa	!	!	!
.	.	4E/	-ti-	.	.
=14-	=14-	=14-	=14-	=14-	=14-
0A;>	-as.	0D;	-as.	0d;	-as
=-	=-	=-	=-	=-	=-
*-	*-	*-	*-	*-	*-
!!!system-decoration: [(s1,s2,s3)]
!!!RDF**kern: < = below
!!!RDF**kern: > = above
!!!ENC: Marta Chmielewska
!!!END: 2021-08-04
!!!ENC: Tomasz Grochalski
!!!END: 2021-07-09
!!!YEC: Copyright 2022 Narodowy Instytut Fryderyka Chopina (https://polishscores.org)
!!!YEM: License CC-BY-4.0 (https://creativecommons.org/licenses/by/4.0)
